!!!COM: Webern, Anton (Friedrich Wilhelm von)
!!!OTL: Fünf Sätze (Five Movements) for String Quartet, op. 5
!!!OMV: I: Heftig bewegt (Moving Heavily)
!!!example: 412
!!!work: Web-8
**kern	**dynam	**kern	**dynam	**kern	**dynam	**kern	**dynam
*part4	*part4	*part3	*part3	*part2	*part2	*part1	*part1
*staff4	*	*staff3	*	*staff2	*	*staff1	*
*I"Violoncello	*	*I"Viola	*	*I"Violin II	*	*I"Violin I	*
*I'Vc.	*	*I'Vla.	*	*I'Vln. II	*	*I'Vln. I	*
*clefF4	*	*clefC3	*	*clefG2	*	*clefG2	*
*k[]	*	*k[]	*	*k[]	*	*k[]	*
*C:	*	*C:	*	*C:	*	*C:	*
*M2/4	*	*M2/4	*	*M2/4	*	*M2/4	*
*MM121	*	*MM121	*	*MM121	*	*MM121	*
=33	=	=	=	=	=	=	=
[2FF#X	.	4.G 4.e	>	4.g 4.cc	>	8ffL	.
.	.	.	.	.	.	(8ggnJ	>
.	.	.	.	.	.	8ffnL	.
.	.	(8Gn 8d#X	]	(8f#X 8ccn	]	[8eenJ	]]
=34	=34	=34	=34	=34	=34	=34	=34
4FF#]	.	2G#X) 2en	]	2gn) 2cc#X	]	8ee])	]
.	.	.	.	.	.	[4.ffn	]]
([4BBn	.	.	.	.	.	.	.
=35	=35	=35	=35	=35	=35	=35	=35
4BB]	.	[2Gn [2d#X	>	[2f#X [2ccn	>	8ff]	]
.	.	.	.	.	.	(4een	.
[4FF#X	.	.	.	.	.	.	.
.	.	.	.	.	.	[8ffn	]
=36	=36	=36	=36	=36	=36	=36	=36
4FF#])	.	4G] 4d#]	.	4f#] 4cc]	.	4ff])	.
4r	.	4r	]	4r	]	8r	]
.	.	.	.	.	.	(8gg-X	<
=37	=37	=37	=37	=37	=37	=37	=37
*M3/4	*	*M3/4	*	*M3/4	*	*M3/4	*
2.r	.	(4an	>	(4dd-X	>	8bb-XL	.
.	.	.	.	.	.	8ggnJ	[
.	.	4a-X)	.	4ccn)	.	4aan)	.
.	.	4r	]	8r	]	8r	[
.	.	.	.	8bb-X'	]]	(8bbb-X	ppp
=38	=38	=38	=38	=38	=38	=38	=38
4cn	>	4en	>	8bn'L	]	8bbnL)	.
.	.	.	.	8cc#X'J	]	([8ccc#XJ	<
8dn~	.	8f#X~	.	16r	.	16ccc#LL]	[
.	.	.	.	16gn'	]	16ggnJJ)	.
16r	]	16r	]	8r	.	8r	[
([16Cn	<	(16En	<	.	.	.	.
16CLL]	.	16ELL	.	4r	.	4r	.
16DnJ	.	16F#XJ	.	.	.	.	.
[8AnJ)	[	[8fnJ)	[	.	.	.	.
=39	=39	=39	=39	=39	=39	=39	=39
!!linebreak:original
4A]	.	4f]	.	2.r	.	(8ggg#XL	.
.	.	.	.	.	.	8eeenJ	.
(8G#XL	>	(8enL	>	.	.	8.ggnL)	.
8DnJ)	.	8B-XJ)	.	.	.	.	.
.	.	.	.	.	.	(16ggg#Jk	<
16r	]	16r	]	.	.	8eeeL	.
(8CnL	<	(8EnL	<	.	.	.	.
.	.	.	.	.	.	8ggJ)	[[
16DnJk	[[	16F#XJk	[[	.	.	.	.
=40	=40	=40	=40	=40	=40	=40	=40
4.An)	[	4.fn)	[	2.r	.	(8.ggg#XL	[
.	.	.	.	.	.	16eeenJk	.
.	.	.	.	.	.	8ggnL)	[
(8Gn	[	(8en	[	.	.	8ggg#J	<
8DnL	<	8B-XL	<	.	.	8.eeeL	.
8CnJ)	[[	8A-XJ)	[[	.	.	.	.
.	.	.	.	.	.	(16aaanJk	[
=41	=41	=41	=41	=41	=41	=41	=41
(8G-XL	[	(8dnL	[	4r	.	8.bb-XL)	.
8FnJ)	.	8AnJ)	.	.	.	.	.
.	.	.	.	.	.	(16gggnJk	[
8r	[	8r	[	4r	.	8ggg-XL	.
(8En	<	(8A-X	<	.	.	8eee-XJ	.
8B-XL	.	8dnL	.	8.r	.	8ggn)	.
[8BnJ	[	[8e-XJ	[	.	.	16r	[
.	.	.	.	([16ggn	>	16gggn	mf
=42	=42	=42	=42	=42	=42	=42	=42
8BL]	>	8e-L]	>	4gg]	.	4ggg-X	>
8CnJ)	.	8EnJ)	.	.	.	.	.
8r	]	4r	]	8ffn)	.	8fffn	]
(8G-X	<	.	.	8r	]	8r	.
8E-XL	.	8r	.	8r	.	4r	.
8GGnJ)	[	([8cn 8a-X	f	([8fff#X	>	.	.
=43	=43	=43	=43	=43	=43	=43	=43
4E-X	.	4c]) 4gn	>	8fff#L]	.	2.r	.
.	.	.	.	8eeenJ)	.	.	.
(8G-XL	<	8r	]	8r	]	.	.
!	!	!	!	!LO:TX:t=`	!	!	!
8E-XJ	.	([8cn 8a-X	f	([8fffn	>	.	.
8GGnL)	.	4c]) 4gn	]]	8.fffL]	.	.	.
[8G-XJ	[[	.	.	.	.	.	.
.	.	.	.	16eeenJk)	]	.	.
==	==	==	==	==	==	==	==
*-	*-	*-	*-	*-	*-	*-	*-
!!!CDT: 1883/12/03-1945/09/15
!!!CBL: Vienna, Austria
!!!CDL: Mittersill, Austria
!!!CNT: Austrian
!!!AGN: Instrumental; Chamber
!!!MCN:
!!!MDT: 1910/02/08
!!!MGN: unknown
!!!MLC: Vienna, Austria
!!!MPD: 1910
!!!MPN:
!!!ODT: 1909 (rev. 1929)
!!!PDT: 1922
!!!excerpt-start-measure: 33
!!!excerpt-end-measure: 43
!!!excerpt-start-time: 1:30
!!!excerpt-end-time: 2:00
!!!EEV: 2020/01/17
!!!system-decoration: [(s1,s2,s3,s4)]
!!!ONB: Converted from MusicXML on 2020/01/17
